!!!OTL: 1040. Der bayrische Himmel.
!!!ODT: 1800
!!!ARE: Europa, Mitteleuropa, Deutschland, Hessen, Unter - Lahn- u. Dillkreis
!!!SCT: E1040
!!!TXL: @@DE
!!!YEM: Copyright 1995, estate of Helmut Schaffrath.
**kern	**text
*ICvox	*
*M3/4	*
*k[f#]	*
*G:	*
!LO:TX:a:t=Mäßig schnell.	!
!LO:TX:a:t=Aus dem Unterlahn- und Dillkreis 1800.	!
{4d	Bin
=1	=1
4.b/	auf
8a	und
4g	ab-
=2	=2
4g	-gan-
4f#}	-ge
{4g	im
=3	=3
4a	Oeſtrei-
4dd	.
4cc	-cher
=4	=4
4b	Land,
4r}	.
{4d	in
=5	=5
4b/	Preu-
4a	-ßen
4g	und
=6	=6
4f#	Ungarn
4e}	.
{8e	bin
8e	ich
=7	=7
4d	auch
4.cc	ſchon
8f#	be-
=8	=8
4g	-kannt.
4r}	.
{8g	Und
8g	wo-
=9	=9
4.a	-hin
8b/	ich
4a	mich
=10	=10
4b/	wen-
4a}	-de,
{8a	und
8a	wo-
=11	=11
4a	-hin
4ee	ich
4dd	nur
=12	=12
2b}	ſchau,
{8g	iſt
8a	der
=13	=13
4.b/	bay-
8a	-ri-
4b	-ſche
=14	=14
4.dd	Him-
8cc}	-mel
{8bL	ſchnee-
8aJ	.
=15	=15
8gL	-weiß
8dJ	.
4b	und
4a	hell-
=16	=16
2g}	-blau.
==	==
!!!AGN: Tanz - Lied
!!!ONB: ESAC (Essen Associative Code) Database: ERK3
!!!AMT: simple triple
!!!AIN: vox
!!!EED: Helmut Schaffrath
!!!EEV: 1.0
!!!GTL: Tanz- und Spiellieder
!!!URL-scan: https://rosdok.uni-rostock.de/mcrviewer/recordIdentifier/rosdok_ppn745177662/iview2/phys_0788.iview2?x=0&y=388.0940883993171&scale=0.6479838709677419&rotation=0&layout=singlePageLayout
!!!ENC: Anna Maria Matuszewska
!!!EEV: 2024/12/23
*-	*-
